!!!!SEGMENT: pl-kk--kk-i-6--033_lilius-franciszek--hortus-conlusus.krn
!!!cenid: 16xx:1008
!!!COM: Lilius, Franciszek
!!!COM-rismid: pe30020509
!!!CDT: ~1600-1657
!!!CNT: Polish
!!!OTL: Hortus conlusus
!!!PDT:
!!!AGN: Sacred
!!!SMS-siglum: PL-Kk
!!!SMS-shelfmark: Kk.I.6
!!!SMS-shelfwork: 033 W
!!!SMS-variant:
!!!SMS-altvar:
!!!NIFC-rismid: 1001136182
!!!URL-scan: http://repozytorium.nifc.pl/skany/pl-kk-nut--i-6
!!!ONB-nifc: UWAGA: C (skan 0044-0045, s. 85-86), T (skan 0151-0152, s. 106-108), B (skan 0261-0262, s. 104-107) Następny utwór: Gloriosa dicta sunt
**kern	**text	**kern	**text	**kern	**text
*part3	*part3	*part2	*part2	*part1	*part1
*staff3	*staff3	*staff2	*staff2	*staff1	*staff1
*I"Baſsus.	*	*I"Tenor.	*	*I"Cantus.	*
*I'B	*	*I'T	*	*I'S	*
*clefF4	*	*clefC4	*	*clefC4	*
*k[]	*	*k[]	*	*k[]	*
*C:	*	*C:	*	*C:	*
*M2/1	*	*M2/1	*	*M2/1	*
*met(c|)	*	*met(c)	*	*met(c|)	*
=1	=1	=1	=1	=1	=1
!	!	!LO:TX:t=P:problem:2\ 4\/ 8\/middle:global	!	!	!
!LO:TX:t=P:problem:2\ 4\/middle:global	!	!	!	!	!
!LO:TX:t=Offertori\num.	!	!LO:TX:a:t=Offertori\num.	!	!LO:TX:t=Offertorium.	!
00r	.	0r	.	00r	.
=2-	=2-	=2-	=2-	=2-	=2-
.	.	1r	.	.	.
*	*	*lig	*	*	*
.	.	1D/	Hor-	.	.
=3-	=3-	=3-	=3-	=3-	=3-
0r	.	1F/	.	00r	.
*	*	*Xlig	*	*	*
.	.	2G/	-tus	.	.
.	.	2A/	Con-	.	.
=4-	=4-	=4-	=4-	=4-	=4-
1r	.	1B-X\	-clu-	.	.
*lig	*	*	*	*	*
1AA/	Hor-	2A/	-sus	.	.
.	.	2.c\	hor-	.	.
=5-	=5-	=5-	=5-	=5-	=5-
1C/	.	.	.	0rA	.
.	.	4d\	.	.	.
!	!	!LO:SIC:v:custos d	!	!	!
.	.	2e\	.	.	.
*Xlig	*	*	*	*	*
!	!	!LO:LB:g=original	!	!	!
2D/	-tus	2d\	.	.	.
2E\	Con-	4c\	.	.	.
.	.	4Bny\	.	.	.
=6-	=6-	=6-	=6-	=6-	=6-
*	*	*	*	*lig	*
2.F\	-clu-	2A/	-tus	1D/	Hor-
.	.	2.F/	Con-	.	.
4E\	.	.	.	.	.
!LO:SIC:v:custos G	!	!	!	!	!
1D\	.	.	.	1F/	.
.	.	4G/	.	.	.
.	.	4A/	.	.	.
.	.	4B\	.	.	.
*	*	*	*	*Xlig	*
=7-	=7-	=7-	=7-	=7-	=7-
*lig	*	*	*	*lig	*
!LO:LB:g=original	!	!	!	!	!
1C/	.	1.c\	.	1G/	.
1D\	.	.	.	1F/	.
.	.	2B\	-clu-	.	.
*Xlig	*	*	*	*Xlig	*
=8-	=8-	=8-	=8-	=8-	=8-
*	*	*	*	*lig	*
2.C/	.	0c\	.	1G/	.
4BB/	.	.	.	.	.
2AA/	.	.	.	1A\	.
4GG/	.	.	.	.	.
4FF/	.	.	.	.	.
*	*	*	*	*Xlig	*
=9-	=9-	=9-	=9-	=9-	=9-
1C/	.	2c\	-ſus	1G/	.
.	.	1c\	fons	.	.
2FF/	-ſus	.	.	1A\	.
1F\	fons	2A/	.	.	.
=10-	=10-	=10-	=10-	=10-	=10-
!	!	!	!	!LO:SIC:v:custos G	!
.	.	2.c\	Si-	1G/	-tus
2E\	Si-	.	.	.	.
.	.	4d\	-gna-	.	.
!	!	!	!	!LO:LB:g=original	!
2.C/	-gna-	1.e\	.	1G/	Con-
4D/	.	.	.	.	.
=11-	=11-	=11-	=11-	=11-	=11-
4E\	.	.	.	1G/	-clu-
4F\	.	.	.	.	.
2G\	.	2d\	.	.	.
*	*	*	*	*lig	*
!	!	!LO:SIC:v:custos G	!	!	!
1C/	-tus	0c\	-tus	1G/	-ſus
=12-	=12-	=12-	=12-	=12-	=12-
2rBB	.	.	.	1A\	.
1C/	fons	.	.	.	.
*	*	*	*	*Xlig	*
!	!	!LO:LB:g=original	!	!	!
.	.	2r	.	1G/	.
!LO:SIC:v:custos AA	!	!	!	!	!
2BB/	ſi-	1G/	fons	.	.
=13-	=13-	=13-	=13-	=13-	=13-
*lig	*	*	*	*	*
!LO:PB:g=original	!	!	!	!	!
1AA/	-gna-	.	.	(>1C/	fons
!	!	!LO:TX:t=P:problem:# below	!	!	!
.	.	2F#X/	ſi-	.	.
1GG/	.	2G/	-gna-	1D/)	.
.	.	2G/	-tus	.	.
*Xlig	*	*	*ij	*	*
=14-	=14-	=14-	=14-	=14-	=14-
1C/	-tus	2r	.	1E/	Si-
.	.	2.c\	fons	.	.
*	*ij	*	*	*lig	*
2r	.	.	.	1E/	-gna-
.	.	4B\	.	.	.
1c\	fons	2G/	.	.	.
=15-	=15-	=15-	=15-	=15-	=15-
.	.	4E/	.	1G/	.
.	.	4Fny/	.	.	.
2B\	.	4G/	.	.	.
.	.	8F/L	.	.	.
.	.	8E/J	.	.	.
*	*	*	*	*Xlig	*
*	*	*	*	*lig	*
2A\	.	4F/	.	1A\	.
.	.	4G/	.	.	.
2F\	ſi	4A/	.	.	.
.	.	4B\	.	.	.
=16-	=16-	=16-	=16-	=16-	=16-
1C/	-gna-	2c\	ſi-	1G/	.
.	.	2G/	-gna-	.	.
*	*	*	*	*Xlig	*
!LO:TX:t=P:problem:cezura pod 1. linią	!	!	!	!	!
*	*	*	*	*lig	*
2FF,</	-tus	2F/	-tus	1A\	.
*	*Xij	*	*	*	*
!	!	!LO:SIC:v:custos G	!	!	!
2C/	e-	2r	.	.	.
=17-	=17-	=17-	=17-	=17-	=17-
!	!	!LO:LB:g=original	!	!	!
2C/	-miſ-	1r	.	1c\	.
2D/	-si-	.	.	.	.
*	*	*	*Xij	*Xlig	*
2E\	-o-	1G/	e-	(<1B\	.
1G\	-nes	.	.	.	.
=18-	=18-	=18-	=18-	=18-	=18-
.	.	2A/	-miſ-	1A\)	.
2F\	tu-	2A/	-si-	.	.
!	!	!	!	!LO:TX:t=P:problem:cezura na 1. linii	!
4E\	.	2B\	-o-	1G,</<	-tus
4D/	.	.	.	.	.
4C/	.	2.c\	.	.	.
!LO:SIC:v:custos AA	!	!	!	!	!
4BB/	.	.	.	.	.
=19-	=19-	=19-	=19-	=19-	=19-
!LO:LB:g=original	!	!	!	!	!
1AA/	.	.	.	1C/	e-
.	.	4A/	-nes	.	.
.	.	1c\	.	.	.
1GG/	.	.	.	1D/	-miſ-
.	.	2B\	tu-	.	.
=20-	=20-	=20-	=20-	=20-	=20-
!	!	!	!	!LO:SIC:v:custos G	!
1C/	-ae	1c\	-ae	1E/	-si-
*	*	*	*	*lig	*
!	!	!	!	!LO:LB:g=original	!
2rBB	.	0r	.	1G/	-o-
2GG/	e-	.	.	.	.
=21-	=21-	=21-	=21-	=21-	=21-
2AA/	-miſ-	.	.	1F/	.
2BB/	-si-	.	.	.	.
*	*	*	*ij	*Xlig	*
1.C/	-o-	1r	.	1E/	-nes
=22-	=22-	=22-	=22-	=22-	=22-
!	!	!LO:LB:g=original	!	!	!
.	.	2r	.	1D/	tu-
2BB/	-nes	2G/	e-	.	.
2C/	tu-	2G/	-miſ-	1C/	-ae
2AA/	.	2A/	-si-	.	.
=23-	=23-	=23-	=23-	=23-	=23-
2GG/	-ae	4B\	-o-	1G/	pa-
.	.	4c\	.	.	.
2G\	pa-	4d\	-nes	.	.
.	.	4B\	.	.	.
*	*	*	*	*lig	*
2E\	-ra-	2c\	tu-	1G/	-ra-
!	!	!LO:SIC:v:custos c	!	!	!
2.C/	-dy-	2c\	-ae	.	.
*	*	*	*Xij	*	*
=24-	=24-	=24-	=24-	=24-	=24-
!	!	!LO:LB:g=original	!	!	!
.	.	2r	.	1A\	.
4BB/	.	.	.	.	.
2.AA/	.	4r	.	.	.
.	.	4c\	pa-	.	.
*	*	*	*	*Xlig	*
*	*	*	*	*lig	*
.	.	2A/	-ra-	1c\	.
4BB/	.	.	.	.	.
4C/	.	2.G/	-dy-	.	.
!LO:SIC:v:custos E	!	!	!	!	!
4D/	.	.	.	.	.
=25-	=25-	=25-	=25-	=25-	=25-
!LO:LB:g=original	!	!	!	!	!
4E\	.	.	.	1B\	.
4F\	.	4A/	.	.	.
2G\	.	4B\	.	.	.
.	.	4c\	.	.	.
*	*	*	*	*Xlig	*
1D\	.	1d\	.	1A\	-dy-
=26-	=26-	=26-	=26-	=26-	=26-
!	!	!	!	!LO:TX:t=P:problem:cezura pod 1. linią	!
1GG/	-ſus	1B\	-ſus	1G,</	-sus
=27-	=27-	=27-	=27-	=27-	=27-
*M3/1	*	*M3/1	*	*	*
!	!	!	!	!LO:TX:t=P:problem:zmiana metrum nieoznaczona	!
*	*	*	*	*lig	*
!	!	!	!	!LO:N:vis=1	!
0C/	O	0c\	O	0.G/	O
1C/	Ma-	1c\	Ma-	.	.
=28-	=28-	=28-	=28-	=28-	=28-
!	!	!	!	!LO:N:vis=1	!
0.FF/	-ri-	0.c\	-ri-	0.A\	.
*	*	*	*	*Xlig	*
=29-	=29-	=29-	=29-	=29-	=29-
*	*	*	*	*lig	*
!	!	!	!	!LO:N:vis=1	!
1C/	-a	1c\	-a	0.G/	.
1C/	ma-	1c\	Ma-	.	.
!	!	!LO:SIC:v:custos A	!	!	!
1C/	-nus	1c\	-nus	.	.
=30-	=30-	=30-	=30-	=30-	=30-
!	!	!	!	!LO:N:vis=1	!
!LO:N:vis=0	!	!LO:PB:g=original	!	!LO:TX:t=P:problem:cezura pod 1. linią	!
0.D\	tu-	0A\	tu-	0.F,</	.
.	.	1B\	-ae	.	.
*	*	*	*	*Xlig	*
=31-	=31-	=31-	=31-	=31-	=31-
*	*	*	*	*lig	*
!	!	!	!	!LO:N:vis=1	!
0C/	-ae	0c\	ſtil-	0.G/	Ma-
1E\	Stil-	1B\	-la-	.	.
=32-	=32-	=32-	=32-	=32-	=32-
!	!	!LO:SIC:v:l:s=ve	!	!LO:N:vis=1	!
0D\	-la-	0d\	-ue-	0.A\	.
!LO:SIC:v:custos C	!	!	!	!	!
1D\	-ue-	1d\	-runt	.	.
*	*	*	*	*Xlig	*
=33-	=33-	=33-	=33-	=33-	=33-
*	*	*	*	*lig	*
!LO:TX:t=P:problem:cezura na 1. linii	!	!	!	!LO:N:vis=1	!
!LO:LB:g=original	!	!	!	!	!
1C,</	-runt	1G/	.	0.c\	-ri-
1C/	O	1G/	O	.	.
1C/	Ma-	1G/	Ma-	.	.
=34-	=34-	=34-	=34-	=34-	=34-
!	!	!	!	!LO:N:vis=1	!
!	!	!	!	!LO:SIC:v:custos c	!
1.F\	-ri-	0.F/	-ri-	0.A\	.
2E\	-a-	.	.	.	.
1D\	.	.	.	.	.
*	*	*	*	*Xlig	*
=35-	=35-	=35-	=35-	=35-	=35-
*	*	*	*	*lig	*
!	!	!	!	!LO:N:vis=1	!
!	!	!	!	!LO:LB:g=original	!
1C/	-a	1G/	-a	0.c\	.
1F\	Ma-	2A/	Ma-	.	.
.	.	2B\	.	.	.
*	*	*col	*	*	*
1A\	-nus	0c\	-nus	.	.
=36-	=36-	=36-	=36-	=36-	=36-
!	!	!	!	!LO:N:vis=1	!
0.G\	tu-	.	.	0.d\	.
.	.	0B\	tu-	.	.
*	*	*Xcol	*	*Xlig	*
=37-	=37-	=37-	=37-	=37-	=37-
!	!	!	!	!LO:N:vis=1	!
!	!	!LO:SIC:v:custos G	!	!LO:TX:t=P:problem:cezura na 1. polu	!
1C/	-ae	0.c\	-ae	0.c,<\	-a
1C/	ſtil-	.	.	.	.
1D\	-la-	.	.	.	.
=38-	=38-	=38-	=38-	=38-	=38-
*	*	*	*	*lig	*
!	!	!LO:N:vis=0	!	!LO:N:vis=1	!
1.E\	-ue-	1%3r	.	0.G/	Ma-
2D/	.	.	.	.	.
2C/	.	.	.	.	.
!LO:SIC:v:custos AA	!	!	!	!	!
2BB/	.	.	.	.	.
=39-	=39-	=39-	=39-	=39-	=39-
!LO:LB:g=original	!	!	!	!LO:N:vis=1	!
2AA/	.	1rA	.	0.c\	.
2BB/	.	.	.	.	.
1C/	.	1G/	Stil-	.	.
1AA/	.	1A\	-la-	.	.
*	*	*	*	*Xlig	*
=40-	=40-	=40-	=40-	=40-	=40-
!LO:TX:t=P:problem:cezura pod 1. linią	!	!LO:SIC:v:l:s=ve	!	!LO:N:vis=1	!
1GG,</	-runt	1.B\	-ue-	0.d\	.
1G\	ſtil-	.	.	.	.
.	.	2c\	.	.	.
1G\	-la-	2d\	.	.	.
.	.	2B\	.	.	.
=41-	=41-	=41-	=41-	=41-	=41-
!	!	!	!	!LO:N:vis=1	!
1.A\	-ue-	1.c\	.	0.c\	-nus
2G\	.	2B\	.	.	.
1F\	.	1A\	.	.	.
=42-	=42-	=42-	=42-	=42-	=42-
!LO:TX:t=P:problem:cezura na 2. polu	!	!LO:TX:t=P:problem:cezura na 1. linii	!	!	!
*	*	*	*	*lig	*
!	!	!	!	!LO:N:vis=1	!
1E,<\	-runt	1G,</	-runt	0.c\	tu-
1C/	ſtil-	1E/	ſtil-	.	.
1D\	-la-	1F/	-la-	.	.
=43-	=43-	=43-	=43-	=43-	=43-
!	!	!LO:SIC:v:l:s=ve	!	!LO:N:vis=1	!
1.E\	-ue-	1.G/	-ue-	0.B\	.
2F\	.	2A/	.	.	.
2G\	.	2B\	.	.	.
2E\	.	2G/	.	.	.
*	*	*	*	*Xlig	*
=44-	=44-	=44-	=44-	=44-	=44-
!	!	!	!	!LO:N:vis=1	!
1.F\	.	0c\	.	0.A\	.
2E\	.	.	.	.	.
!LO:SIC:v:custos C	!	!LO:SIC:v:custos G	!	!	!
1D\	.	1d\	.	.	.
=45-	=45-	=45-	=45-	=45-	=45-
!LO:LB:g=original	!	!LO:LB:g=original	!	!LO:N:vis=1	!
1.C/	.	0G/	.	0.c\	.
2BB/	.	.	.	.	.
2AA/	.	1.A\	.	.	.
2GG/	.	.	.	.	.
=46-	=46-	=46-	=46-	=46-	=46-
*	*	*	*	*lig	*
!LO:N:vis=0	!	!	!	!LO:N:vis=1	!
0.FF/	.	.	.	0.A\	-ae
.	.	2B\	.	.	.
.	.	2c\	.	.	.
.	.	2A/	.	.	.
*	*	*col	*	*	*
.	.	0c\	.	.	.
=47-	=47-	=47-	=47-	=47-	=47-
!	!	!	!	!LO:N:vis=1	!
!LO:N:vis=0	!	!	!	!LO:TX:t=P:problem:cezura pod 1. linią	!
0.GG/	.	.	.	0.G,</	.
.	.	0B\	.	.	.
*	*	*Xcol	*	*Xlig	*
=48-	=48-	=48-	=48-	=48-	=48-
*M2/1	*	*M2/1	*	*	*
*met(c|)	*	*met(c|)	*	*	*
!	!	!	!	!LO:TX:t=P:problem:zmiana metrum nieoznaczona	!
1C/	-runt	1c\	-runt	1G/	Stil-
2rBB	.	2r	.	1E/	-la-
1C/	Stil-	1c\	Stil-	.	.
=49-	=49-	=49-	=49-	=49-	=49-
*	*	*	*	*lig	*
!	!	!	!	!LO:SIC:v:l:s=ve	!
.	.	.	.	1G/	-ue-
2BB/	-la-	2d\	-la-	.	.
!	!	!LO:SIC:v:l:s=ve	!	!	!
2AA/	-ue-	2c\	-ue-	1c\	.
2EE/	-runt	2G/	-runt	.	.
*	*	*	*	*Xlig	*
=50-	=50-	=50-	=50-	=50-	=50-
1FF/	Myr-	1.F/	Myr-	1A\	.
!	!	!	!	!LO:SIC:v:custos G	!
0GG/	.	.	.	1G/	-runt
.	.	2E/	.	.	.
=51-	=51-	=51-	=51-	=51-	=51-
!	!	!LO:SIC:v:custos E	!	!LO:PB:g=original	!
.	.	1D/	.	1G/	Myr-
!LO:SIC:v:custos F	!	!LO:LB:g=original	!	!LO:TX:t=P:problem:cezura na 1. linii	!
0C/	-rham	1E/	-rham	1G,</	-ham
=52-	=52-	=52-	=52-	=52-	=52-
*	*	*	*	*lig	*
.	.	2r	.	1G/	Mel-
.	.	1c\	Mel-	.	.
!LO:PB:g=original	!	!	!	!	!
2r	.	.	.	1c\	.
2F\	Mel-	1A\	-li-	.	.
*	*	*	*	*Xlig	*
=53-	=53-	=53-	=53-	=53-	=53-
*	*	*	*	*lig	*
2D/	-li-	.	.	1d\	-li-
4G\	-flu-	4B\	-flu-	.	.
4F\	.	4A/	.	.	.
4E\	.	4G/	.	1c\	.
4D/	.	4F/	.	.	.
2E\	.	2G/	.	.	.
*	*	*	*	*Xlig	*
=54-	=54-	=54-	=54-	=54-	=54-
*	*	*	*	*lig	*
4F\	.	2F/	-i	1A\	-flu-
4E\	.	.	.	.	.
4D/	.	2.d\	Mel-	.	.
4C/	.	.	.	.	.
4BB-X/	.	.	.	1d\	.
4C/	.	4c\	-li-	.	.
4D/	.	2B-X\	-flu-	.	.
4E\	.	.	.	.	.
*	*	*	*	*Xlig	*
=55-	=55-	=55-	=55-	=55-	=55-
*	*	*lig	*	*	*
1F\	.	1A\	-i	0c\	.
!LO:TX:t=P:problem:cezura pod 1. linią	!	!LO:TX:t=P:problem:cezura na 1. linii	!	!	!
1C,</	-i	1G,</	.	.	.
*	*	*Xlig	*	*	*
=56-	=56-	=56-	=56-	=56-	=56-
2FF/	q(ue)	1A\	q(ue)	1c\	-i
2.C/	fa-	.	.	.	.
*	*	*	*	*lig	*
.	.	1r	.	1G/	fa-
4D/	-cti	.	.	.	.
!LO:SIC:v:custos F	!	!	!	!	!
2E\	ſunt	.	.	.	.
=57-	=57-	=57-	=57-	=57-	=57-
!LO:LB:g=original	!	!	!	!	!
4F\	Cae-	2r	.	1A\	.
4E\	.	.	.	.	.
4F\	.	2.c\	fa-	.	.
4G\	.	.	.	.	.
*	*	*	*	*Xlig	*
2A\	.	.	.	1c\	.
.	.	4d\	.	.	.
!	!	!LO:SIC:v:custos c	!	!	!
2E\	.	2e\	-cti	.	.
=58-	=58-	=58-	=58-	=58-	=58-
!	!	!LO:LB:g=original	!	!	!
1F\	.	2c\	ſunt	1A\	-cti
.	.	4A/	Cae-	.	.
.	.	4Bny\	.	.	.
!	!	!	!	!LO:TX:t=P:problem:cezura na 1. linii	!
2C/	-li	4c\	.	1G,</	ſunt
.	.	8B\L	.	.	.
.	.	8A\J	.	.	.
2.E\	fa-	1G/	.	.	.
=59-	=59-	=59-	=59-	=59-	=59-
*	*	*	*	*lig	*
.	.	.	.	1c\	Cae-
4D/	-cti	.	.	.	.
2C/	Sunt	2A/	.	.	.
4BBny/	.	2B\	.	1d\	.
4C/	.	.	.	.	.
4D/	Cae-	4A/	.	.	.
4BB/	.	2d\	.	.	.
*	*	*	*	*Xlig	*
=60-	=60-	=60-	=60-	=60-	=60-
*	*	*	*	*lig	*
4C/	.	.	.	1e\	.
4D/	.	4c\	.	.	.
4E\	.	1c\	.	.	.
4F\	.	.	.	.	.
1G\	.	.	.	1d\	.
.	.	2B\	.	.	.
*	*	*	*	*Xlig	*
=61-	=61-	=61-	=61-	=61-	=61-
!	!	!	!	!LO:SIC:v:custos G	!
1C/	-li	2c\	-li	1c\	-li
.	.	2G/	dum	.	.
!LO:SIC:v:custos C	!	!	!	!LO:LB:g=original	!
1r	.	2d\	ma-	1G/	dum
.	.	2d\	-nu	.	.
=62-	=62-	=62-	=62-	=62-	=62-
!LO:LB:g=original	!	!	!	!	!
2r	.	2.e\	Do-	1c\	ma-
2C/	dum	.	.	.	.
!	!	!LO:SIC:v:custos A	!	!	!
.	.	4e\	-mi-	.	.
!	!	!LO:LB:g=original	!	!	!
2F\	ma-	4A/	-ni	1d\	-nu
.	.	4A/	dum	.	.
1G\	-nu	2.B\	ma-	.	.
=63-	=63-	=63-	=63-	=63-	=63-
*	*	*	*	*lig	*
.	.	.	.	1e\	Do-
.	.	4B\	-nu	.	.
2.A\	Do-	2.c\	Do-	.	.
.	.	.	.	1c\	.
4G\	.	4B\	.	.	.
2E\	.	2G/	.	.	.
*	*	*	*	*Xlig	*
=64-	=64-	=64-	=64-	=64-	=64-
*	*	*	*	*lig	*
4F\	.	2c\	.	1A\	.
4E\	.	.	.	.	.
4F\	.	2.A/	.	.	.
4G\	.	.	.	.	.
2.A\	.	.	.	1c\	.
.	.	4B\	.	.	.
.	.	1c\	.	.	.
4A\	-mi-	.	.	.	.
*	*	*	*	*Xlig	*
=65-	=65-	=65-	=65-	=65-	=65-
2G\	-ni	.	.	1d\	mi-
2GG/	dum	2B\	-mi-	.	.
!	!	!	!	!LO:TX:t=P:problem:cezura na 2. linii	!
2C/	ma-	1c\	-ni	1c,<\	-ni
2D/	-nu	.	.	.	.
=66-	=66-	=66-	=66-	=66-	=66-
*	*	*	*ij	*lig	*
4E\	Do-	2r	.	1G/	fa-
4D/	.	.	.	.	.
4C/	.	2G/	dum	.	.
!LO:SIC:v:custos AA	!	!	!	!	!
4BB/	.	.	.	.	.
!LO:LB:g=original	!	!	!	!	!
2AA/	.	2c\	ma-	1F/	.
2D/	-mi-	2d\	-nu	.	.
!	!	!LO:SIC:v:custos e	!	!	!
*	*	*	*	*Xlig	*
=67-	=67-	=67-	=67-	=67-	=67-
!	!	!LO:PB:g=original	!	!	!
2C/	-ni	4e\	Do-	1G/	-bri-
.	.	4d\	.	.	.
1C/	fa-	4c\	.	.	.
.	.	8B\L	.	.	.
.	.	8A\J	.	.	.
.	.	2.G/	.	1G/	-ca-
2BB/	-bri-	.	.	.	.
.	.	4G/	-mi-	.	.
=68-	=68-	=68-	=68-	=68-	=68-
*lig	*	*	*	*	*
1C/	-ca-	2E/	-ni	1G/	-ta
*	*	*	*Xij	*	*
.	.	1c\	fa-	.	.
*col	*	*	*	*	*
2.GG/	.	.	.	1G/	es
.	.	2B\	-bri-	.	.
*Xlig	*	*	*	*	*
4GG/	-ta	.	.	.	.
*Xcol	*	*	*	*	*
=69-	=69-	=69-	=69-	=69-	=69-
*	*	*	*	*lig	*
2C/	es	2c\	-ca-	1G/	Ma-
4G\	Ma-	2B\	-ta	.	.
4G\	-ter	.	.	.	.
2F\	tan-	2A/	es	1A\	.
2D/	-ti	4d\	Ma-	.	.
.	.	4d\	-ter	.	.
*	*	*	*	*Xlig	*
=70-	=70-	=70-	=70-	=70-	=70-
!	!	!	!	!LO:SIC:v:custos d	!
1E\	De-	2B\	tan-	1G,</	-ter
.	.	2G/	-ti	.	.
*	*	*	*	*lig	*
!	!	!	!	!LO:LB:g=original	!
1D\	-i	1.A\	De-	1d\	tan-
=71-	=71-	=71-	=71-	=71-	=71-
4r	.	.	.	1c\	.
2A\	Ma-	.	.	.	.
.	.	2A/	-i	.	.
4A\	-ter	.	.	.	.
!LO:SIC:v:custos G	!	!	!	!	!
*	*	*	*	*Xlig	*
*	*	*	*	*lig	*
!LO:LB:g=original	!	!	!	!	!
2G\	tan-	4r	.	1B\	.
.	.	2e\	Ma-	.	.
2E\	-ti	.	.	.	.
!	!	!LO:SIC:v:custos c	!	!	!
.	.	4e\	-ter	.	.
=72-	=72-	=72-	=72-	=72-	=72-
!	!	!LO:LB:g=original	!	!	!
1F\	De-	2c\	tan-	1A\	.
.	.	2A/	-ti	.	.
*	*	*	*	*Xlig	*
2C/	-i	4c\	De-	1e\	.
.	.	4d\	.	.	.
1c\	Ma-	4e\	.	.	.
.	.	4c\	.	.	.
=73-	=73-	=73-	=73-	=73-	=73-
.	.	1d\	.	1d\	.
2B\	-ter	.	.	.	.
!	!	!LO:TX:t=P:problem:cezura na 1. linii	!	!	!
*	*	*	*	*lig	*
4c\	tan-	2e,<\	-i	1c\	-ti
4B\	.	.	.	.	.
*	*	*	*ij	*	*
4A\	.	2.c\	Ma-	.	.
4G\	.	.	.	.	.
=74-	=74-	=74-	=74-	=74-	=74-
2F\	.	.	.	1A\	.
.	.	4c\	-ter	.	.
2D/	.	4F/	tan-	.	.
.	.	4F/	-ti	.	.
*	*	*	*	*Xlig	*
*	*	*	*	*lig	*
2C/	-ti	4G/	De-	1c\	De-
.	.	4G/	-i	.	.
*	*	*	*Xij	*	*
1C/	Ma-	1G/	Ma-	.	.
=75-	=75-	=75-	=75-	=75-	=75-
.	.	.	.	1G/	.
2BB/	-ter	2D/	-ter	.	.
*	*	*	*	*Xlig	*
2AA/	tan-	4E/	tan-	1A\	.
.	.	4E/	-ti	.	.
2FF/	-ti	1F/	De-	.	.
=76-	=76-	=76-	=76-	=76-	=76-
0GG/	De-	.	.	[0G/;<l	-i.
.	.	2E/	.	.	.
!	!	!LO:SIC:v:custos C	!	!	!
.	.	1D/	.	.	.
=77-	=77-	=77-	=77-	=77-	=77-
!LO:SIC:v:custos G	!	!LO:LB:g=original	!	!	!
1C/	-i	2C/	-i	0G/_	.
.	.	4c\	Ma-	.	.
.	.	4c\	-ter	.	.
!LO:LB:g=original	!	!	!	!	!
4r	.	2B\	tan-	.	.
2G\	Ma-	.	.	.	.
.	.	2G/	-ti	.	.
4G\	-ter	.	.	.	.
=78-	=78-	=78-	=78-	=78-	=78-
4E\	tan-	4c\	De-	0G/_	.
4D/	-ti	4d\	.	.	.
2.C/	De-	4e\	.	.	.
.	.	4c\	.	.	.
.	.	1d\	.	.	.
8BB/L	.	.	.	.	.
8AA/J	.	.	.	.	.
2BB/	.	.	.	.	.
=79-	=79-	=79-	=79-	=79-	=79-
2.C/	.	2c\	-i	0G/_	.
.	.	1e\	tan-	.	.
4D/	.	.	.	.	.
4E\	.	.	.	.	.
4F\	.	.	.	.	.
2G\	.	2d\	-ti	.	.
=80-	=80-	=80-	=80-	=80-	=80-
0C/	.	2.e\	De-	0G/_	.
.	.	4d\	.	.	.
.	.	1c\	.	.	.
=81-	=81-	=81-	=81-	=81-	=81-
!LO:TX:t=P:problem:cezura pod 1. linią	!	!	!	!	!
2GG,</	-i	2B\	-i	0G/_	.
1GG/	Ma-	1B\	Ma-	.	.
!LO:SIC:v:custos C	!	!	!	!	!
2GG/	-ter	2B\	-ter	.	.
=82-	=82-	=82-	=82-	=82-	=82-
!LO:PB:g=original	!	!	!	!	!
2C/	tan-	2e\	tan-	0G/_	.
2BB/	-ti	1d\	.	.	.
1C/	De-	.	.	.	.
.	.	1c\	-ti	.	.
=83-	=83-	=83-	=83-	=83-	=83-
0GG/	.	.	.	0G/_	.
.	.	4B\	De-	.	.
.	.	4A\	.	.	.
.	.	1B\	.	.	.
=84-	=84-	=84-	=84-	=84-	=84-
!LO:TX:t=P:problem:brak kreski finalnej	!	!LO:TX:t=P:problem:brak kreski finalnej	!	!LO:TX:t=P:problem:brak kreski finalnej	!
0C/;;	-i	0c\;;	-i.	0G/]	.
==	==	==	==	==	==
*-	*-	*-	*-	*-	*-
!!!system-decoration: [(s1,s2,s3)]
!!!RDF**kern: > = above
!!!RDF**kern: < = below
!!!RDF**kern: l = terminal long
!!!EED: Andrzej Borzym
!!!EST: 2021-03-23
!!!ENC:Kamil Watkowski
!!!END:2021-03-10
